X: 20417
T: John Dwyer's
R: reel
M: 4/4
K: Gmajor
ge|dB~B2 GEDE|GB~B2 dBGB|~A2AB AGED|EGAB c2Bc|
dB~B2 GEDE|GB~B2 dBGA|~B2BA BedB|~A2AB G2:|
ga|bg~g2 bgdg|af~f2 afdf|bg~g2 bgag|eaag a2ga|
bg~g2 agef|~g2ge dBGA|~B2BA BedB|~A2AB G2:|

